docs/img/about/tw.svg

<svg width="41" height="33" viewBox="0 0 41 33" fill="none" xmlns="http://www.w3.org/2000/svg">
<path d="M39.5477 3.77977C38.9154 4.06091 38.2594 4.2952 37.5876 4.48262C38.378 3.60016 38.9786 2.5615 39.3501 1.42132C39.4291 1.16361 39.3501 0.890277 39.1367 0.718469C38.9233 0.554471 38.6309 0.531043 38.3938 0.671613C36.979 1.49941 35.4458 2.10074 33.8414 2.45217C32.2291 0.890277 30.0319 0 27.7636 0C22.9741 0 19.0777 3.85006 19.0777 8.58259C19.0777 8.95744 19.1014 9.32448 19.1488 9.69153C13.2054 9.1761 7.68083 6.28661 3.88716 1.68684C3.7528 1.52284 3.54731 1.43694 3.33391 1.45256C3.12052 1.46818 2.93084 1.58532 2.82019 1.77275C2.04565 3.07692 1.63466 4.56853 1.63466 6.09137C1.63466 8.16088 2.3855 10.121 3.70538 11.6517C3.3023 11.5111 2.91503 11.3393 2.54356 11.1363C2.34598 11.0269 2.10097 11.0269 1.90338 11.1441C1.7058 11.2534 1.57934 11.4643 1.57144 11.6907C1.57144 11.7298 1.57144 11.7688 1.57144 11.8079C1.57144 14.8926 3.25488 17.6728 5.82351 19.1878C5.60221 19.1644 5.38092 19.1332 5.15962 19.0941C4.93042 19.0551 4.70122 19.1332 4.55105 19.2972C4.40088 19.469 4.34556 19.7032 4.41669 19.9219C5.36511 22.8583 7.81519 25.0137 10.779 25.6775C8.32101 27.2003 5.51528 27.9969 2.56728 27.9969C1.9508 27.9969 1.33433 27.9578 0.725763 27.8875C0.425431 27.8485 0.140905 28.0281 0.0381599 28.3093C-0.0645854 28.5904 0.0460634 28.9106 0.298975 29.0668C4.08474 31.4643 8.47118 32.7372 12.9683 32.7372C21.8123 32.7372 27.3447 28.6138 30.4271 25.162C34.2761 20.8512 36.4811 15.1425 36.4811 9.5041C36.4811 9.26982 36.4811 9.02772 36.4732 8.79344C37.9907 7.66107 39.2948 6.29442 40.3617 4.72472C40.5198 4.48262 40.504 4.17025 40.3222 3.95158C40.1246 3.73292 39.8164 3.66263 39.5477 3.77977Z" fill="#73A1FB"/>
</svg>

<svg width="41" height="33" fill="none" xmlns="http://www.w3.org/2000/svg"><path d="M39.548 3.78c-.633.28-1.289.515-1.96.703A8.553 8.553 0 0 0 39.35 1.42a.647.647 0 0 0-.956-.75 15.631 15.631 0 0 1-4.553 1.781A8.77 8.77 0 0 0 27.764 0c-4.79 0-8.686 3.85-8.686 8.583 0 .374.023.741.07 1.109a22.314 22.314 0 0 1-15.26-8.005.65.65 0 0 0-.554-.234.648.648 0 0 0-.514.32A8.458 8.458 0 0 0 1.635 6.09c0 2.07.75 4.03 2.07 5.56a7.721 7.721 0 0 1-1.161-.515.645.645 0 0 0-.64.008.653.653 0 0 0-.333.547v.117c0 3.085 1.684 5.865 4.253 7.38a9.642 9.642 0 0 1-.664-.094.671.671 0 0 0-.609.203.644.644 0 0 0-.134.625c.948 2.936 3.398 5.092 6.362 5.755a15.481 15.481 0 0 1-8.212 2.32c-.616 0-1.233-.04-1.841-.11a.647.647 0 0 0-.688.422.638.638 0 0 0 .261.758 23.66 23.66 0 0 0 12.67 3.67c8.843 0 14.376-4.123 17.458-7.575 3.85-4.31 6.054-10.02 6.054-15.658 0-.234 0-.476-.008-.71a16.933 16.933 0 0 0 3.889-4.07.65.65 0 0 0-.04-.772.676.676 0 0 0-.774-.172z" fill="#73A1FB"/></svg>
